X: 9691
T:Lads of Laois, The
R:Reel
D:Arty McGlynn & Nollaig Casey: Lead the Knave.
Z:id:hn-reel-100
M:C|
K:EDor
EB,~B,2 EGFE|DA,~A,2 DEFD|GEED EFGA|B2ec dBAF|\
EB,~B,2 EGFE|DA,~A,2 DEFD|E2BE dBAF|1 DEFA BEED:|2 DEFA BE~E2\
|:eB~B2 egfe|defa gfed|(3Bcd ed efge|fgaf gfed|\
eB~B2 GBFB|EBBA Bdef|~g3e ~f3d|1 efed BAFA:|2 efed BAFD||
